img/svg/stone_pattern_yellow.svg

<svg width="511" height="700" viewBox="0 0 511 700" fill="none" xmlns="http://www.w3.org/2000/svg">
<path opacity="0.07" fill-rule="evenodd" clip-rule="evenodd" d="M221.803 65.5072C301.968 52.7428 383.211 -29.7851 453.128 11.431C521.344 51.6439 506.871 156.746 510.676 235.797C513.622 296.985 496.13 354.474 472.36 410.94C450.562 462.721 417.936 505.597 379.746 546.82C331.565 598.826 289.939 661.72 221.803 681.392C142.155 704.388 44.5977 714.095 -20.0706 662.255C-84.5483 610.568 -76.3661 512.379 -90.5464 431.003C-102.553 362.102 -120 292.103 -96.0211 226.398C-72.5177 161.995 -22.7159 108.433 38.4808 77.4532C94.4784 49.1058 159.812 75.3777 221.803 65.5072Z" fill="#E9C46A"/>
</svg>

<svg xmlns="http://www.w3.org/2000/svg" width="511" height="700" fill="none" xmlns:v="https://vecta.io/nano"><path opacity=".07" fill-rule="evenodd" d="M221.803 65.507c80.165-12.764 161.408-95.292 231.325-54.076 68.216 40.213 53.743 145.315 57.548 224.366 2.946 61.188-14.546 118.677-38.316 175.143-21.798 51.781-54.424 94.657-92.614 135.88-48.181 52.006-89.807 114.9-157.943 134.572-79.648 22.996-177.205 32.703-241.874-19.137-64.478-51.687-56.296-149.876-70.476-231.252-12.007-68.901-29.454-138.9-5.475-204.605 23.503-64.403 73.305-117.965 134.502-148.945 55.998-28.347 121.331-2.075 183.322-11.946z" fill="#e9c46a"/></svg>
